X: 1
T: Farewell to Ireland
M: C|
L: 1/8
S: ceili[1].abc
R: Reel
Z:Zeek <wosikae:sbcglobal.net> 2004-7-17 (layout modified by JC)
K: Ador
|: "Am"A,3C   E3 F | "G"GEDB, G,B,DB, | "Am"A,3C         E3F      | "G"GEDF "Am"EA,A,G,   |
|  "Am"A,3C   E3 F | "G"GEDB, D2g2    | "Am"edeg         a2ba     | "G"gedB "Am"BA A2    :|
|: "Am"a2ag   agef | "G"g2ga  gede    | "Am"a2ag         agef     | "G"gedB     BAA2      |
|  "Am"agef   gage | "G"d3 B  GABd    | "Am"(3cBA BA   (3Bcd   ef | "G"gedB     BA"Am"A2 :|
|: "Am"eABA   eABA | "G"d3 B  GABd    | "Am"eABA         eAAa     | "G"gedB     BA"Am"A2  |
|  "Am"eABA   eABA | "G"d3 B  GABd    | "Am"(3cBA BA "G"(3Bcd  ef |    gedB     BA"Am"A2 :|
|: "A"ae^ce   aece | "G"gdBd  gdBd    |  "A"ae^ce         a3    f |    gedB "G"BAAe       |
|  "A"agef "G"g3 e |    dedB  GABd    | "Am"(3cBA BA "G"(3Bcd  ef |    gedB    BA"Am"A2  :|
|: "A"ae^ce   aece | "G"gdBd  gdBd    |  "A"ae^ce         a3    f | "G"gedB "A"BAAe       |
|  "A"agef "G"gage |    d2dB  GABd    | "Am"(3cBA BA "G"(3B^cd ef |    gedB    BA"Am"A2  :|
